{ "compressionlevel":-1,
 "height":15,
 "infinite":false,
 "layers":[
        {
         "data":[25, 25, 25, 25, 25, 25, 25, 25, 25, 25, 25, 25, 26, 24, 25,
            25, 4, 48, 48, 48, 48, 48, 48, 48, 48, 5, 25, 26, 24, 25,
            25, 26, 1, 2, 2, 2, 2, 2, 2, 3, 24, 25, 26, 24, 25,
            25, 26, 24, 25, 25, 25, 25, 25, 25, 26, 47, 48, 49, 24, 25,
            25, 26, 24, 25, 25, 25, 25, 25, 25, 27, 2, 2, 2, 28, 25,
            25, 26, 24, 25, 4, 48, 48, 48, 5, 25, 25, 25, 25, 25, 25,
            25, 26, 24, 25, 26, 1, 2, 3, 47, 48, 48, 48, 48, 48, 5,
            25, 26, 24, 25, 26, 24, 25, 27, 2, 2, 2, 2, 2, 3, 24,
            25, 26, 24, 25, 26, 24, 25, 25, 25, 25, 25, 25, 25, 26, 24,
            25, 26, 47, 48, 49, 24, 25, 4, 48, 48, 48, 5, 25, 26, 24,
            25, 27, 2, 2, 2, 28, 25, 26, 1, 2, 3, 24, 25, 26, 24,
            25, 25, 25, 25, 25, 25, 25, 26, 24, 25, 26, 24, 25, 26, 24,
            48, 48, 48, 48, 48, 48, 48, 49, 24, 25, 26, 47, 48, 49, 24,
            2, 2, 2, 2, 2, 2, 2, 2, 28, 25, 27, 2, 2, 2, 28,
            25, 25, 25, 25, 25, 25, 25, 25, 25, 25, 25, 25, 25, 25, 25],
         "height":15,
         "id":1,
         "name":"Tile Layer 1",
         "opacity":1,
         "type":"tilelayer",
         "visible":true,
         "width":15,
         "x":0,
         "y":0
        }, 
        {
         "draworder":"topdown",
         "id":2,
         "name":"waypoints",
         "objects":[
                {
                 "height":0,
                 "id":3,
                 "name":"",
                 "polygon":[
                        {
                         "x":0,
                         "y":0
                        }, 
                        {
                         "x":0,
                         "y":256
                        }, 
                        {
                         "x":-192,
                         "y":256
                        }, 
                        {
                         "x":-192,
                         "y":118
                        }, 
                        {
                         "x":-704,
                         "y":118
                        }, 
                        {
                         "x":-704,
                         "y":630
                        }, 
                        {
                         "x":-512,
                         "y":629
                        }, 
                        {
                         "x":-512,
                         "y":374
                        }, 
                        {
                         "x":-322,
                         "y":374
                        }, 
                        {
                         "x":-322,
                         "y":436
                        }, 
                        {
                         "x":68,
                         "y":438
                        }, 
                        {
                         "x":64,
                         "y":816
                        }, 
                        {
                         "x":-128,
                         "y":820
                        }, 
                        {
                         "x":-128,
                         "y":632
                        }, 
                        {
                         "x":-320,
                         "y":632
                        },
                    
                        {
                         "x":-322,
                         "y":818
                        }, 
                        {
                         "x":-828,
                         "y":824
                        }                        
                        ],
                 "rotation":0,
                 "type":"",
                 "visible":true,
                 "width":0,
                 "x":832,
                 "y":10
                }],
         "opacity":1,
         "type":"objectgroup",
         "visible":true,
         "x":0,
         "y":0
        }],
 "nextlayerid":3,
 "nextobjectid":4,
 "orientation":"orthogonal",
 "renderorder":"right-down",
 "tiledversion":"1.11.0",
 "tileheight":64,
 "tilesets":[
        {
         "columns":23,
         "firstgid":1,
         "image":"..\/..\/..\/..\/Sprites\/kenney_tower-defense-top-down\/Tilesheet\/towerDefense_tilesheet.png",
         "imageheight":832,
         "imagewidth":1472,
         "margin":0,
         "name":"1",
         "spacing":0,
         "tilecount":299,
         "tileheight":64,
         "tilewidth":64
        }],
 "tilewidth":64,
 "type":"map",
 "version":"1.10",
 "width":15
}