{ "compressionlevel":-1,
 "height":15,
 "infinite":false,
 "layers":[
        {
         "data":[    25, 25, 25, 25, 25, 25, 25, 25, 25, 25, 25, 25, 26, 24, 25,
                     25, 4, 48, 48, 48, 48, 48, 48, 48, 48, 5, 25, 26, 24, 25,
                     25, 26, 1, 2, 2, 2, 2, 2, 2, 3, 24, 25, 26, 24, 25,
                     25, 26, 24, 25, 25, 25, 25, 25, 25, 26, 47, 48, 49, 24, 25,
                     25, 26, 24, 25, 25, 25, 25, 25, 25, 27, 2, 2, 2, 28, 25,
                     25, 26, 24, 25, 4, 48, 48, 48, 5, 25, 25, 25, 25, 25, 25,
                     25, 26, 24, 25, 26, 1, 2, 3, 47, 48, 48, 48, 48, 48, 5,
                     25, 26, 24, 25, 26, 24, 25, 27, 2, 2, 2, 2, 2, 3, 24,
                     25, 26, 24, 25, 26, 24, 25, 25, 25, 25, 25, 25, 25, 26, 24,
                     25, 26, 47, 48, 49, 24, 25, 4, 48, 48, 48, 5, 25, 26, 24,
                     25, 27, 2, 2, 2, 28, 25, 26, 1, 2, 3, 24, 25, 26, 24,
                     25, 25, 25, 25, 25, 25, 25, 26, 24, 25, 26, 24, 25, 26, 24,
                     48, 48, 48, 48, 48, 48, 48, 49, 24, 25, 26, 47, 48, 49, 24,
                     2, 2, 2, 2, 2, 2, 2, 2, 28, 25, 27, 2, 2, 2, 28,
                     25, 25, 25, 25, 25, 25, 25, 25, 25, 25, 25, 25, 25, 25, 25],
         "height":15,
         "id":1,
         "name":"tilemap",
         "opacity":1,
         "type":"tilelayer",
         "visible":true,
         "width":15,
         "x":0,
         "y":0
        }, 
        {
         "draworder":"topdown",
         "id":3,
         "name":"waypoints",
         "objects":[
                {
                 "height":0,
                 "id":4,
                 "name":"",
                 "polygon":[                        
                        {
                         "x":832,
                         "y":0
                        }, 
                        {
                         "x":832,
                         "y":256
                        }, 
                        {
                         "x":640,
                         "y":256
                        }, 
                        {
                         "x":640,
                         "y":128
                        }, 
                        {
                         "x":128,
                         "y":128
                        }, 
                        {
                         "x":128,
                         "y":640
                        }, 
                        {
                         "x":320,
                         "y":640
                        }, 
                        {
                         "x":320,
                         "y":384
                        }, 
                        {
                         "x":512,
                         "y":384
                        }, 
                        {
                         "x":512,
                         "y":448
                        }, 
                        {
                         "x":896,
                         "y":448
                        }, 
                        {
                         "x":896,
                         "y":832
                        }, 
                        {
                         "x":704,
                         "y":832
                        }, 
                        {
                         "x":704,
                         "y":640
                        },
                    
                        {
                         "x":512,
                         "y":640
                        }, 
                        {
                         "x":512,
                         "y":832
                        }, 
                        {
                         "x":0,
                         "y":832
                        }],
                 "rotation":0,
                 "type":"",
                 "visible":true,
                 "width":0,
                 "x":4,
                 "y":2
                }],
         "opacity":1,
         "type":"objectgroup",
         "visible":true,
         "x":0,
         "y":0
        }],
 "nextlayerid":4,
 "nextobjectid":5,
 "orientation":"orthogonal",
 "renderorder":"right-down",
 "tiledversion":"1.11.0",
 "tileheight":64,
 "tilesets":[
        {
         "columns":23,
         "firstgid":1,
         "image":"..\/..\/..\/..\/Sprites\/kenney_tower-defense-top-down\/Tilesheet\/towerDefense_tilesheet.png",
         "imageheight":832,
         "imagewidth":1472,
         "margin":0,
         "name":"1",
         "spacing":0,
         "tilecount":299,
         "tileheight":64,
         "tilewidth":64
        }],
 "tilewidth":64,
 "type":"map",
 "version":"1.10",
 "width":15
}